;FLAVOR:Marlin(Volumetric)
;TIME:64
;Filament used: 4615.03mm3
;Layer height: 0.4
;MINX:8.19
;MINY:17.372
;MINZ:0.4
;MAXX:111.81
;MAXY:120.446
;MAXZ:0.4
;Generated with Cura_SteamEngine 4.13.1
M220 S150 ;Increase speed by 50%
M204 S5000
M109 S0
M82 ;absolute extrusion mode
G28 ;Home
;G0 Z0.4 ;Move the platform down 0.4mm
;Prime the extruder
;LAYER_COUNT:1
;LAYER:0
;M107

G0 X11.37 Y20.552
G0 X11.37 Y117.266
G1 X12.8 Y117.266
G1 X12.8 Y20.552
G1 X16 Y20.552
G1 X16 Y117.266
G1 X19.2 Y117.266
G1 X19.2 Y20.552
G1 X22.4 Y20.552
G1 X22.4 Y117.266
G1 X25.6 Y117.266
G1 X25.6 Y20.552
G1 X28.8 Y20.552
G1 X28.8 Y117.266
G1 X32 Y117.266
G1 X32 Y20.552
G1 X35.2 Y20.552
G1 X35.2 Y117.266
G1 X38.4 Y117.266
G1 X38.4 Y20.552
G1 X41.6 Y20.552
G1 X41.6 Y117.266
G1 X44.8 Y117.266
G1 X44.8 Y20.552
G1 X48 Y20.552
G1 X48 Y117.266
G1 X51.2 Y117.266
G1 X51.2 Y20.552
G1 X54.4 Y20.552
G1 X54.4 Y117.266
G1 X57.6 Y117.266
G1 X57.6 Y20.552
G1 X60.8 Y20.552
G1 X60.8 Y117.266
G1 X64 Y117.266
G1 X64 Y20.552
G1 X67.2 Y20.552
G1 X67.2 Y117.266
G1 X70.4 Y117.266
G1 X70.4 Y20.552
G1 X73.6 Y20.552
G1 X73.6 Y117.266
G1 X76.8 Y117.266
G1 X76.8 Y20.552
G1 X80 Y20.552
G1 X80 Y117.266
G1 X83.2 Y117.266
G1 X83.2 Y20.552
G1 X86.4 Y20.552
G1 X86.4 Y117.266
G1 X89.6 Y117.266
G1 X89.6 Y20.552
G1 X92.8 Y20.552
G1 X92.8 Y117.266
G1 X96 Y117.266
G1 X96 Y20.552
G1 X99.2 Y20.552
G1 X99.2 Y117.266
G1 X102.4 Y117.266
G1 X102.4 Y20.552



;TIME_ELAPSED:64.979067
G10
M204 S4000
M104 S0
M140 S0
;Retract the filament
G92 E1
G1 E-1 F300
G28 X0 Y0
M84
M82 ;absolute extrusion mode
;End of Gcode
;SETTING_3 {"global_quality": "[general]\\nversion = 4\\nname = Thinfilm_R2\\nde
;SETTING_3 finition = custom\\n\\n[metadata]\\ntype = quality_changes\\nquality_
;SETTING_3 type = not_supported\\nsetting_version = 19\\n\\n[values]\\naccelerat
;SETTING_3 ion_enabled = True\\nadhesion_type = none\\nlayer_height = 0.4\\nlaye
;SETTING_3 r_height_0 = 0.4\\nmaterial_bed_temperature = 0\\nspeed_slowdown_laye
;SETTING_3 rs = 0\\n\\n", "extruder_quality": ["[general]\\nversion = 4\\nname =
;SETTING_3  Thinfilm_R2\\ndefinition = custom\\n\\n[metadata]\\ntype = quality_c
;SETTING_3 hanges\\nquality_type = not_supported\\nintent_category = default\\np
;SETTING_3 osition = 0\\nsetting_version = 19\\n\\n[values]\\nbottom_layers = 99
;SETTING_3 99999\\ninfill_angles = [0]\\ninfill_pattern = grid\\ninfill_sparse_d
;SETTING_3 ensity = 100\\ninitial_layer_line_width_factor = 800\\nmaterial_print
;SETTING_3 _temperature = 0\\nskin_angles = [0]\\nspeed_layer_0 = 300\\nspeed_pr
;SETTING_3 int = 300\\nspeed_travel = 300\\nspeed_wall = 300\\nspeed_wall_x = 30
;SETTING_3 0\\ntop_bottom_pattern = zigzag\\nwall_line_count = 0\\nzig_zaggify_i
;SETTING_3 nfill = False\\n\\n"]}
